X: 405
T:Baisiez moy
N: Derived from Jos3003-Baisiez_moy.krn
C: Josquin des Prez
%%abc-version 2.0
%%abcx-abcm2ps-target-version 5.9.1 (29 Sep 2008)
%%abc-creator hum2abc beta
%%abcx-conversion-date 2019/02/12 16:15:55
%%abc-edited-by Jesse Rodin
%%abc-edited-by Will Watson 07/09/2011
%%abcx-initial-encoding-date 2011/09/07/
%%humdrum-veritas 3141894205
%%humdrum-veritas-data 933232838
%%linebreak <none>
%%barnumbers 0
L: 1/4
M: 2/1
Q: 1/2=120
V: 1 clef=treble
V: 2 clef=treble-8
V: 3 clef=treble-8
V: 4 clef=treble-8
V: 5 clef=bass
V: 6 clef=bass
K: C
[V:1] z8 | 
[V:2] z4d4- | 
[V:3] z8 | 
[V:4] z8 | 
[V:5] D,4G,,4 | 
[V:6] D,8 | 
[V:1] z4G4- | 
[V:2] d2cBc4 | 
[V:3] G8 | 
[V:4] G4C4 | 
[V:5] C,3D,E,4 | 
[V:6] E,8 | 
[V:1] G2FEF4 | 
[V:2] d6cB | 
[V:3] A8 | 
[V:4] F3GA4 | 
[V:5] z2F,2F,2D,2 | 
[V:6] D,8 | 
[V:1] G6FE | 
[V:2] B3A/G/G2g2- | 
[V:3] G8 | 
[V:4] z2B2B2G2 | 
[V:5] G,2G,2E,4 | 
[V:6] z4G,4 | 
[V:1] E3D/C/C2c2- | 
[V:2] g2fef4 | 
[V:3] z4c4 | 
[V:4] c2c2A4 | 
[V:5] z2A,2A,2F,2 | 
[V:6] A,8 | 
[V:1] c2BAB4 | 
[V:2] g8- | 
[V:3] d8 | 
[V:4] z2d2d2B2 | 
[V:5] _B,2B,2G,4 | 
[V:6] G,8 | 
[V:1] c8- | 
[V:2] g8 | 
[V:3] c8 | 
[V:4] e2e2c4 | 
[V:5] z8 | 
[V:6] z8 | 
[V:1] c8 | 
[V:2] z8 | 
[V:3] z8 | 
[V:4] z8 | 
[V:5] C,2C,2C,2C,2 | 
[V:6] C2C2C2C2 | 
[V:1] z8 | 
[V:2] z8 | 
[V:3] f2f2f2f2 | 
[V:4] F2F2F2F2 | 
[V:5] D,4D,4 | 
[V:6] A,4A,4 | 
[V:1] z8 | 
[V:2] z8 | 
[V:3] d4d4 | 
[V:4] G4G4 | 
[V:5] B,,3G,,G,,2G,2- | 
[V:6] B,6A,G, | 
[V:1] z8 | 
[V:2] g2g2g2g2 | 
[V:3] e6dc | 
[V:4] E3CC2c2- | 
[V:5] G,2E,2E,4 | 
[V:6] G,4z4 | 
[V:1] c2c2c2c2 | 
[V:2] e4e4 | 
[V:3] c4z4 | 
[V:4] c2A2A4 | 
[V:5] A,,2A,,2A,,2A,,2 | 
[V:6] A,2A,2A,2A,2 | 
[V:1] A4A4 | 
[V:2] f6ed | 
[V:3] d2d2d2d2 | 
[V:4] D2D2D2D2 | 
[V:5] D,4D,4 | 
[V:6] F,4F,4 | 
[V:1] B6AG | 
[V:2] d4g4- | 
[V:3] B4B4 | 
[V:4] G4G4 | 
[V:5] G,,4z2G,,2 | 
[V:6] G,6F,E, | 
[V:1] G4c4- | 
[V:2] g2f2e4- | 
[V:3] c6BA | 
[V:4] C4z2C2 | 
[V:5] C,3D,E,2A,,2 | 
[V:6] E,4C,4 | 
[V:1] c2B2A4- | 
[V:2] e2d2d4- | 
[V:3] A4F4 | 
[V:4] F3GA2D2 | 
[V:5] D,8 | 
[V:6] D,8 | 
[V:1] A2G2G4- | 
[V:2] d4c4 | 
[V:3] G8 | 
[V:4] G8 | 
[V:5] z8 | 
[V:6] E,8 | 
[V:1] G4^F4 | 
[V:2] d6cB | 
[V:3] A8 | 
[V:4] z8 | 
[V:5] z2F,2F,2D,2 | 
[V:6] D,8 | 
[V:1] G6FE | 
[V:2] B3A/G/G2g2- | 
[V:3] G8 | 
[V:4] z2B2B2G2 | 
[V:5] G,2G,2E,4 | 
[V:6] z4G,4 | 
[V:1] E3D/C/C2c2- | 
[V:2] g2fef4 | 
[V:3] z4c4 | 
[V:4] c2c2A4 | 
[V:5] z2A,2A,2F,2 | 
[V:6] A,8 | 
[V:1] c2BAB4 | 
[V:2] g8- | 
[V:3] d8 | 
[V:4] z2d2d2B2 | 
[V:5] _B,2B,2G,4 | 
[V:6] G,8 | 
[V:1] c8- | 
[V:2] g8 | 
[V:3] c8 | 
[V:4] e2e2c4 | 
[V:5] z8 | 
[V:6] z8 | 
[V:1] c8 | 
[V:2] z8 | 
[V:3] z8 | 
[V:4] z8 | 
[V:5] C,2C,2C,2C,2 | 
[V:6] C2C2C2C2 | 
[V:1] z8 | 
[V:2] z8 | 
[V:3] f2f2f2f2 | 
[V:4] F2F2F2F2 | 
[V:5] D,4D,4 | 
[V:6] A,4A,4 | 
[V:1] z8 | 
[V:2] z8 | 
[V:3] d4d4 | 
[V:4] G4G4 | 
[V:5] B,,3G,,G,,2G,2- | 
[V:6] B,6A,G, | 
[V:1] z8 | 
[V:2] g2g2g2g2 | 
[V:3] e6dc | 
[V:4] E3CC2c2- | 
[V:5] G,2E,2E,4 | 
[V:6] G,4z4 | 
[V:1] c2c2c2c2 | 
[V:2] e4e4 | 
[V:3] c4z4 | 
[V:4] c2A2A4 | 
[V:5] A,,2A,,2A,,2A,,2 | 
[V:6] A,2A,2A,2A,2 | 
[V:1] A4A4 | 
[V:2] f6ed | 
[V:3] d2d2d2d2 | 
[V:4] D2D2D2D2 | 
[V:5] D,4D,4 | 
[V:6] F,4F,4 | 
[V:1] B6AG | 
[V:2] d4g4- | 
[V:3] B4B4 | 
[V:4] G4G4 | 
[V:5] G,,8 | 
[V:6] G,6F,E, | 
[V:1] G4c4- | 
[V:2] g2f2e4- | 
[V:3] c6BA | 
[V:4] C8 | 
[V:5] C,8 | 
[V:6] E,4C,4 | 
[V:1] c2B2A4- | 
[V:2] e2d2d4- | 
[V:3] A4F4 | 
[V:4] F8 | 
[V:5] z8 | 
[V:6] D,8 | 
[V:1] A2G2G4- | 
[V:2] d4c4 | 
[V:3] G8 | 
[V:4] z8 | 
[V:5] z4C,4 | 
[V:6] E,8 | 
[V:1] G4^F4 | 
[V:2] d8 | 
[V:3] A8 | 
[V:4] z4F4 | 
[V:5] F,2F,2D,4 | 
[V:6] D,8 | 
[V:1] G8 | 
[V:2] z4e4 | 
[V:3] G8 | 
[V:4] _B2_B2G4 | 
[V:5] z4z2C,2 | 
[V:6] z4C,4 | 
[V:1] z4A4 | 
[V:2] d2f3ed2- | 
[V:3] z4F4 | 
[V:4] z4z2F2 | 
[V:5] F,2F,2D,4 | 
[V:6] D,8 | 
[V:1] G2_B3AG2- | 
[V:2] d2c_Bc4 | 
[V:3] G8 | 
[V:4] _B2_B2G4 | 
[V:5] z4C,4 | 
[V:6] E,8 | 
[V:1] G2^FEF4 | 
[V:2] d8 | 
[V:3] A8 | 
[V:4] z8 | 
[V:5] F,6D,2 | 
[V:6] D,8 | 
[V:1] G8 |]  
[V:2] d8 |]  
[V:3] G8 |]  
[V:4] G8 |]  
[V:5] D,8 |]  
[V:6] G,,8 |]  



